X: 1
T: Smash the Windows
T: Roaring Jelly
T: Bris na Fuinneoga
R: jig
O: basic version
Z: 2020 John Chambers <jc:trillian.mit.edu>
M: 6/8
L: 1/8
K: D
|:\
"D"DED F2A | d2f "A"ecA | "G"G2B "D"F2A | "Em"E2F "A7"GFE |\
"D"DED F2A | d2f "A"ecA | "G"Bgf "A7"e2c | "D"d6 :|
|:\
"D"a2f d2f | A2a agf | "Em"g2e "A7"c2e | A2g gfe |\
"D"f2d "Em"g2e | "D"a2f "G"b2g | "D"f2d "A7"e2c | "D"d6 :|
